!!!OTL: My Irish Polly
!!!ONM: 81.
**kern
*clefG2
*k[b-]
*F:
*M4/4
*MM120
{4c
=1
4f
4a
4a
4g
=2
4f
4c
4c}
{4e
=3
4d
4c
4f
4e
=4
2f
4r}
{(8a
8b-)
=5
4cc
4cc
4f
4cc
=6
2dd
4cc}
{4a
=7
4a
4f
4c
4A
=8
2c
4r}
{4c
=9
4f
4a
4a
4g
=10
4f
4c
4c}
{4e
=11
4d
4c
4f
4e
=12
2f
4r}
{(8a
8b-)
=13
4cc
4cc
4a
4cc
=14
4.dd
8dd
4cc}
{4a
=15
4a
4f
4c
4A
=16
2c
4r}
{8a
8b-
=17
4cc
4cc
4dd
4dd
=18
2cc
4a}
{8a
8g
=19
4f
8d
8d
4c
4A
=20
2c}
{4c
4f
=21
8a
8a
4a
4g
4f
=22
4A
4c
4c}
{8A
8B-
=23
4c
4f
4f
4e
=24
2.f}
==
*-
!!!CNT: Folksongs of Maritime Canada
!!!MRD: 1928///-1932///
!!!OCL: Helen Creighton
!!!YOR: Songs and Ballads from Nova Scotia
!!!PPR: J.M. Dent & Sons, Limited
!!!PPP: Toronto, Canada
!!!PDT: 1932///
!!!reprint: Dover Publications, 1992: ISBN 0-486-21703-5
!!!ENC1: Craig Stuart Sapp (music and bibliographic data)                       
!!!ENC2: Marcus Pearce (phrase markings and key designations)                   
!!!ENC3: Darrell Conklin (phrase markings and key designations)   
!!!END: 2002/04/10/
!!!EEV: 2004/06/05
!!!MPN: Miss Muriel Henneberry
!!!PPG: 175
!!!EFL: 82/152
!!!ARE: Canada; Nova Scotia
!!!verses: 9
!!!VTS: 1273537982
